assets/illustrations/empty_box_3.svg

<svg fill="none" height="280" viewBox="0 0 280 280" width="280" xmlns="http://www.w3.org/2000/svg">
    <path
        d="m183.03 48.7481s-31.962 40.4855-83.101 16.3366c-51.1388-24.1489-102.27772 41.1953-58.2414 80.9693 44.0363 39.775.9434 61.631 30.8599 86.007 34.0025 27.706 63.6045-28.476 90.5945-15.691 59.568 28.217 103.698 17.047 93.755-15.625-17.455-57.352-39.774-61.082-22.729-90.914 17.046-29.8314-20.575-91.8569-51.138-61.0829z"
        fill="#dee9ff" />
    <path d="m141.111 135.285v84.938l-65.9474-28.484.3146-84.631z" fill="#418df9" />
    <path d="m141.112 135.336v84.938l65.626-27.501v-85.394z" fill="#a2bdff" />
    <path d="m141.111 135.285 65.947-27.622-65.429-29.0026-66.4654 28.3126z" fill="#0e84e5" />
    <g fill="#699cff">
        <path
            d="m57.1545 122.125 66.3675 32.214c.178.086.38.112.574.073.195-.04.371-.142.501-.291l16.514-18.836-65.9474-28.312-18.1568 13.614c-.1241.093-.2223.216-.285.358-.0626.142-.0878.298-.0729.452.0148.155.0691.303.1576.43.0886.127.2084.23.348.298z" />
        <path
            d="m207.058 107.663 18.315 16.559c.112.101.197.228.247.37.05.143.064.295.04.444-.023.148-.084.289-.175.408-.092.12-.212.215-.35.276l-65.549 29.255c-.175.078-.37.098-.557.058-.188-.04-.358-.138-.486-.281l-17.432-19.467z" />
        <path
            d="m141.628 78.6603 65.613 29.0027 9.436-2.187c.186-.043.353-.143.478-.287.125-.143.202-.323.219-.513.017-.189-.026-.379-.123-.543s-.243-.293-.418-.369l-59.913-25.9598c-.131-.0568-.273-.0818-.416-.0728z" />
        <path
            d="m141.629 78.6603-65.2454 28.4477-8.2478-1.386c-.191-.036-.3654-.132-.4975-.274-.1321-.143-.2149-.324-.2361-.517s.0203-.388.1183-.556c.0981-.167.2475-.299.4262-.375l61.3933-26.4583c.136-.0577.283-.0814.43-.069z" />
    </g>
    <path
        d="m209.63 207.03c8.996 0 16.289-7.293 16.289-16.289s-7.293-16.289-16.289-16.289-16.289 7.293-16.289 16.289 7.293 16.289 16.289 16.289z"
        fill="#418df9" stroke="#fff" stroke-miterlimit="10" stroke-width="15" />
    <path
        d="m214.807 185.913c-.269-.935-.646-1.695-1.13-2.274-.468-.565-1.076-.999-1.763-1.258-1.482-.512-3.093-.512-4.575 0-.686.257-1.292.691-1.756 1.258-.492.579-.868 1.339-1.131 2.274-.262.936-.397 2.079-.397 3.425v2.745c0 1.346.135 2.49.404 3.432.211.837.599 1.619 1.137 2.294.468.571 1.075 1.012 1.763 1.279 1.475.529 3.087.529 4.562 0 .684-.267 1.288-.708 1.75-1.279.53-.678.913-1.46 1.124-2.294.262-.942.397-2.086.397-3.432h.014v-2.745c-.001-1.346-.136-2.489-.399-3.425zm-2.455 6.58c.009.733-.05 1.465-.175 2.187-.085.514-.261 1.008-.518 1.46-.199.349-.493.634-.848.821-.365.176-.766.263-1.171.256-.405.006-.805-.082-1.171-.256-.359-.188-.66-.472-.868-.821-.263-.451-.445-.945-.538-1.46-.137-.72-.201-1.453-.188-2.187v-3.593c-.012-.73.049-1.461.182-2.18.088-.504.269-.987.532-1.426.208-.336.507-.606.861-.781.367-.159.763-.242 1.164-.242.4 0 .797.083 1.164.242.357.171.657.442.861.781.263.439.444.922.532 1.426.133.719.194 1.449.182 2.18v3.593z"
        fill="#fff" />
</svg>

<svg fill="none" height="280" viewBox="0 0 280 280" width="280" xmlns="http://www.w3.org/2000/svg">
    <path
        d="M183.03 48.7481C183.03 48.7481 151.068 89.2336 99.929 65.0847C48.7902 40.9358 -2.34872 106.28 41.6876 146.054C85.7239 185.829 42.631 207.685 72.5475 232.061C106.55 259.767 136.152 203.585 163.142 216.37C222.71 244.587 266.84 233.417 256.897 200.745C239.442 143.393 217.123 139.663 234.168 109.831C251.214 79.9996 213.593 17.9741 183.03 48.7481Z"
        fill="#DEE9FF" />
    <path d="M141.111 135.285V220.223L75.1636 191.739L75.4782 107.108L141.111 135.285Z" fill="#418DF9" />
    <path d="M141.112 135.336V220.274L206.738 192.773V107.379L141.112 135.336Z" fill="#A2BDFF" />
    <path d="M141.111 135.285L207.058 107.663L141.629 78.6604L75.1636 106.973L141.111 135.285Z" fill="#0E84E5" />
    <path
        d="M57.1545 122.125L123.522 154.339C123.7 154.425 123.902 154.451 124.096 154.412C124.291 154.372 124.467 154.27 124.597 154.121L141.111 135.285L75.1636 106.973L57.0068 120.587C56.8827 120.68 56.7845 120.803 56.7218 120.945C56.6592 121.087 56.634 121.243 56.6489 121.397C56.6637 121.552 56.718 121.7 56.8065 121.827C56.8951 121.954 57.0149 122.057 57.1545 122.125Z"
        fill="#699CFF" />
    <path
        d="M207.058 107.663L225.373 124.222C225.485 124.323 225.57 124.45 225.62 124.592C225.67 124.735 225.684 124.887 225.66 125.036C225.637 125.184 225.576 125.325 225.485 125.444C225.393 125.564 225.273 125.659 225.135 125.72L159.586 154.975C159.411 155.053 159.216 155.073 159.029 155.033C158.841 154.993 158.671 154.895 158.543 154.752L141.111 135.285L207.058 107.663Z"
        fill="#699CFF" />
    <path
        d="M141.628 78.6603L207.241 107.663L216.677 105.476C216.863 105.433 217.03 105.333 217.155 105.189C217.28 105.046 217.357 104.866 217.374 104.676C217.391 104.487 217.348 104.297 217.251 104.133C217.154 103.969 217.008 103.84 216.833 103.764L156.92 77.8042C156.789 77.7474 156.647 77.7224 156.504 77.7314L141.628 78.6603Z"
        fill="#699CFF" />
    <path
        d="M141.629 78.6603L76.3836 107.108L68.1358 105.722C67.9448 105.686 67.7704 105.59 67.6383 105.448C67.5062 105.305 67.4234 105.124 67.4022 104.931C67.381 104.738 67.4225 104.543 67.5205 104.375C67.6186 104.208 67.768 104.076 67.9467 104L129.34 77.5417C129.476 77.484 129.623 77.4603 129.77 77.4727L141.629 78.6603Z"
        fill="#699CFF" />
    <path
        d="M209.63 207.03C218.626 207.03 225.919 199.737 225.919 190.741C225.919 181.745 218.626 174.452 209.63 174.452C200.634 174.452 193.341 181.745 193.341 190.741C193.341 199.737 200.634 207.03 209.63 207.03Z"
        fill="#418DF9" stroke="white" stroke-miterlimit="10" stroke-width="15" />
    <path
        d="M214.807 185.913C214.538 184.978 214.161 184.218 213.677 183.639C213.209 183.074 212.601 182.64 211.914 182.381C210.432 181.869 208.821 181.869 207.339 182.381C206.653 182.638 206.047 183.072 205.583 183.639C205.091 184.218 204.715 184.978 204.452 185.913C204.19 186.849 204.055 187.992 204.055 189.338V192.083C204.055 193.429 204.19 194.573 204.459 195.515C204.67 196.352 205.058 197.134 205.596 197.809C206.064 198.38 206.671 198.821 207.359 199.088C208.834 199.617 210.446 199.617 211.921 199.088C212.605 198.821 213.209 198.38 213.671 197.809C214.201 197.131 214.584 196.349 214.795 195.515C215.057 194.573 215.192 193.429 215.192 192.083H215.206V189.338C215.205 187.992 215.07 186.849 214.807 185.913ZM212.352 192.493C212.361 193.226 212.302 193.958 212.177 194.68C212.092 195.194 211.916 195.688 211.659 196.14C211.46 196.489 211.166 196.774 210.811 196.961C210.446 197.137 210.045 197.224 209.64 197.217C209.235 197.223 208.835 197.135 208.469 196.961C208.11 196.773 207.809 196.489 207.601 196.14C207.338 195.689 207.156 195.195 207.063 194.68C206.926 193.96 206.862 193.227 206.875 192.493V188.9C206.863 188.17 206.924 187.439 207.057 186.72C207.145 186.216 207.326 185.733 207.589 185.294C207.797 184.958 208.096 184.688 208.45 184.513C208.817 184.354 209.213 184.271 209.614 184.271C210.014 184.271 210.411 184.354 210.778 184.513C211.135 184.684 211.435 184.955 211.639 185.294C211.902 185.733 212.083 186.216 212.171 186.72C212.304 187.439 212.365 188.169 212.353 188.9V192.493H212.352Z"
        fill="white" />
</svg>
